X: 36
T: the Humours of Dublin
T: Longways for as many as will.
%R: jig
B: Daniel Wright "Wright's Compleat Collection of Celebrated Country Dances" 1740 p.18
S: http://library.efdss.org/cgi-bin/dancebooks.cgi
Z: 2014 John Chambers <jc:trillian.mit.edu>
M: 6/4
L: 1/4
K: Dm
% - - - - - - - - - - - - - - - - - - - - - - - - -
A |\
d2e (fe)d | ^c2d e2e | f3 e2d | c3 A2 |]|\
c |\
F2G (c>d)c | F2F c>dc | d3 A2G | F3 D3 |]
% - - - - - - - - - - - - - - - - - - - - - - - - -
%%begintext align
%% The 1st Cu. cast off and cast up again, cross
%% over an go the whole figure which will
%% bring you to the top then cast off behind
%% the next Cu. :| cross Hands backwards &
%% forwards right Hand and left into your
%% own Places :| The Tune to be Play'd twice.
%%endtext
% - - - - - - - - - - - - - - - - - - - - - - - - -
%%sep 2 4 300
